lib/functional/office&editing/file-tsx.svg

<svg xmlns="http://www.w3.org/2000/svg" fill="none" stroke="currentColor" aria-hidden="true" viewBox="0 0 32 32"><g id="Icon-FileTsx"><g clip-path="url(#clip0_12_1268)"><g id="size=md (32px)"><g id="FileTsx"><path id="Vector" stroke-linecap="round" stroke-linejoin="round" stroke-width="2" d="M21.5 21L26 27"/><path id="Vector_2" stroke-linecap="round" stroke-linejoin="round" stroke-width="2" d="M26 21L21.5 27"/><path id="Vector_3" stroke-linecap="round" stroke-linejoin="round" stroke-width="2" d="M10.5 21H6"/><path id="Vector_4" stroke-linecap="round" stroke-linejoin="round" stroke-width="2" d="M8.25 27V21"/><path id="Vector_5" stroke-linecap="round" stroke-linejoin="round" stroke-width="2" d="M14 26.5C14.5418 26.9041 15.1991 27.1232 15.875 27.125C17 27.125 18 26.75 18 25.5C18 23.5 14 24.375 14 22.5C14 21.5 14.75 20.875 15.875 20.875C16.5509 20.8768 17.2082 21.0959 17.75 21.5"/><path id="Vector_6" stroke-linecap="round" stroke-linejoin="round" stroke-width="2" d="M6 16V5C6 4.73478 6.10536 4.48043 6.29289 4.29289C6.48043 4.10536 6.73478 4 7 4H19L26 11V16"/><path id="Vector_7" stroke-linecap="round" stroke-linejoin="round" stroke-width="2" d="M19 4V11H26"/></g></g></g></g><defs><clipPath id="clip0_12_1268"><rect width="32" height="32" fill="white" rx="5"/></clipPath></defs></svg>

<svg xmlns="http://www.w3.org/2000/svg" fill="none" stroke="currentColor" aria-hidden="true" viewBox="0 0 32 32"><g stroke="#101828" stroke-linecap="round" stroke-linejoin="round" stroke-width="2" clip-path="url(#a)"><path d="m21.5 21 4.5 6m0-6-4.5 6m-11-6H6m2.25 6v-6M14 26.5a3.15 3.15 0 0 0 1.875.625C17 27.125 18 26.75 18 25.5c0-2-4-1.125-4-3 0-1 .75-1.625 1.875-1.625a3.15 3.15 0 0 1 1.875.625M6 16V5a1 1 0 0 1 1-1h12l7 7v5"/><path d="M19 4v7h7"/></g><defs><clipPath id="a"><rect width="32" height="32" fill="#fff" rx="5"/></clipPath></defs></svg>
